X: 1
T: WEE TOD
C: un-knowen
O: SCOTS
S: FROM THE MAN WHO COMP-BALLYMAC+SILVER BIRTCH=LES,CRAIG, CULLYBACY,CO-ANTRIM
Z: SEE-http://www.hastetothewedding.com/
R: jig
M: 6/8
L: 1/8
%Q: 3/8=130
Z: Contributed 20040818200657 by JAMES McAULEY
K: A
D |\
AAA FEE | FAA fee | cee fee | cec BcB |
AAA FEE | FAA fee | cee fec | BcB A2 :|
|: B |\
cee e3  | cee fee | f2e f2a | f2e fga |
AAA FEE | FAA fee | cee fec | BcB A2 :|
